svg/azure-advisor.svg

<?xml version="1.0" encoding="UTF-8"?>
<svg xmlns="http://www.w3.org/2000/svg" xmlns:xlink="http://www.w3.org/1999/xlink" width="32" height="32" viewBox="0 0 32 32">
<defs>
<linearGradient id="linear-pattern-0" gradientUnits="userSpaceOnUse" x1="9" y1="-0.88" x2="9" y2="16.01" gradientTransform="matrix(1.777778, 0.00266842, -0.00266842, 1.777778, 0, 0)">
<stop offset="0.22" stop-color="rgb(19.607843%, 83.137255%, 96.078431%)" stop-opacity="1"/>
<stop offset="0.43" stop-color="rgb(19.215686%, 81.960784%, 94.901961%)" stop-opacity="1"/>
<stop offset="0.6" stop-color="rgb(17.647059%, 77.647059%, 91.372549%)" stop-opacity="1"/>
<stop offset="0.76" stop-color="rgb(15.686275%, 70.980392%, 85.098039%)" stop-opacity="1"/>
<stop offset="0.91" stop-color="rgb(12.156863%, 61.568627%, 76.862745%)" stop-opacity="1"/>
<stop offset="1" stop-color="rgb(9.803922%, 54.117647%, 70.196078%)" stop-opacity="1"/>
</linearGradient>
</defs>
<path fill-rule="nonzero" fill="url(#linear-pattern-0)" d="M 31.109375 16.78125 C 31.046875 13.414062 28.542969 10.59375 25.207031 10.132812 C 25.0625 5.40625 21.136719 1.675781 16.410156 1.777344 C 12.640625 1.738281 9.253906 4.082031 7.964844 7.625 C 3.953125 8.136719 0.925781 11.511719 0.851562 15.554688 C 0.910156 17.753906 1.84375 19.835938 3.441406 21.347656 C 5.039062 22.859375 7.171875 23.671875 9.367188 23.609375 C 9.617188 23.625 9.867188 23.625 10.117188 23.609375 L 23.894531 23.609375 C 24.011719 23.628906 24.132812 23.628906 24.25 23.609375 C 28.011719 23.570312 31.054688 20.542969 31.109375 16.78125 "/>
<path fill-rule="nonzero" fill="rgb(21.568627%, 76.078431%, 69.411765%)" fill-opacity="1" d="M 25.832031 26.914062 L 22.277344 30.71875 C 22.15625 30.839844 21.976562 30.882812 21.8125 30.832031 C 21.644531 30.78125 21.523438 30.644531 21.492188 30.472656 L 19.34375 19.980469 C 19.328125 19.808594 19.410156 19.644531 19.554688 19.554688 L 21.902344 18.59375 C 22.128906 18.507812 22.382812 18.609375 22.488281 18.828125 L 25.957031 26.472656 C 26.003906 26.632812 25.957031 26.804688 25.832031 26.914062 "/>
<path fill-rule="nonzero" fill="rgb(25.882353%, 90.980392%, 79.215686%)" fill-opacity="1" d="M 14.222656 26.914062 L 17.777344 30.71875 C 17.898438 30.84375 18.082031 30.890625 18.246094 30.832031 C 18.410156 30.78125 18.53125 30.640625 18.558594 30.472656 L 20.710938 19.980469 C 20.746094 19.773438 20.636719 19.570312 20.445312 19.484375 L 18.097656 18.523438 C 17.871094 18.433594 17.613281 18.535156 17.511719 18.753906 L 14.042969 26.398438 C 13.972656 26.589844 14.046875 26.808594 14.222656 26.914062 "/>
<path fill-rule="nonzero" fill="rgb(0%, 35.686275%, 63.137255%)" fill-opacity="1" d="M 20.585938 10.667969 L 21.050781 10.277344 C 21.355469 10.027344 21.804688 10.066406 22.0625 10.363281 C 22.117188 10.425781 22.160156 10.5 22.1875 10.578125 L 22.398438 11.148438 C 22.527344 11.46875 22.859375 11.65625 23.199219 11.609375 L 23.785156 11.503906 C 24.175781 11.4375 24.550781 11.699219 24.621094 12.089844 C 24.640625 12.171875 24.640625 12.253906 24.621094 12.335938 L 24.515625 12.925781 C 24.464844 13.265625 24.65625 13.597656 24.976562 13.722656 L 25.546875 13.921875 C 25.917969 14.070312 26.105469 14.484375 25.972656 14.863281 C 25.9375 14.9375 25.898438 15.007812 25.847656 15.074219 L 25.457031 15.519531 C 25.242188 15.789062 25.242188 16.175781 25.457031 16.445312 L 25.847656 16.90625 C 26.097656 17.214844 26.050781 17.671875 25.742188 17.921875 C 25.683594 17.972656 25.617188 18.011719 25.546875 18.042969 L 24.976562 18.257812 C 24.648438 18.375 24.453125 18.714844 24.515625 19.058594 L 24.621094 19.644531 C 24.660156 19.832031 24.617188 20.027344 24.503906 20.179688 C 24.394531 20.335938 24.222656 20.4375 24.035156 20.460938 C 23.953125 20.480469 23.867188 20.480469 23.785156 20.460938 L 23.199219 20.460938 C 22.855469 20.394531 22.515625 20.59375 22.398438 20.925781 L 22.1875 21.476562 C 22.125 21.65625 21.988281 21.804688 21.8125 21.882812 C 21.640625 21.964844 21.441406 21.972656 21.261719 21.902344 C 21.183594 21.875 21.113281 21.832031 21.050781 21.777344 L 20.605469 21.332031 C 20.339844 21.105469 19.949219 21.105469 19.679688 21.332031 L 19.21875 21.707031 C 19.074219 21.832031 18.882812 21.894531 18.691406 21.875 C 18.5 21.859375 18.324219 21.765625 18.203125 21.617188 C 18.144531 21.558594 18.101562 21.484375 18.078125 21.40625 L 17.867188 20.851562 C 17.761719 20.515625 17.414062 20.316406 17.066406 20.390625 L 16.480469 20.496094 C 16.25 20.535156 16.015625 20.460938 15.847656 20.296875 C 15.6875 20.128906 15.609375 19.894531 15.644531 19.664062 L 15.75 19.074219 C 15.820312 18.730469 15.625 18.386719 15.289062 18.277344 L 14.738281 18.0625 C 14.359375 17.949219 14.132812 17.558594 14.222656 17.171875 C 14.257812 17.097656 14.296875 17.027344 14.347656 16.960938 L 14.738281 16.496094 C 14.953125 16.226562 14.953125 15.84375 14.738281 15.574219 L 14.347656 15.128906 C 14.226562 14.976562 14.167969 14.78125 14.1875 14.589844 C 14.207031 14.398438 14.304688 14.21875 14.453125 14.097656 C 14.511719 14.042969 14.589844 14.003906 14.667969 13.992188 L 15.21875 13.777344 C 15.539062 13.648438 15.730469 13.320312 15.679688 12.976562 L 15.644531 12.445312 C 15.578125 12.054688 15.839844 11.679688 16.230469 11.609375 L 16.480469 11.609375 L 17.066406 11.714844 C 17.410156 11.773438 17.746094 11.578125 17.867188 11.253906 L 18.078125 10.667969 C 18.222656 10.296875 18.632812 10.109375 19.003906 10.238281 L 19.21875 10.363281 L 19.679688 10.753906 C 19.964844 10.941406 20.34375 10.90625 20.585938 10.667969 "/>
<path fill-rule="nonzero" fill="rgb(100%, 79.215686%, 0%)" fill-opacity="1" d="M 20.140625 11.839844 C 19.027344 11.839844 17.957031 12.28125 17.171875 13.070312 C 16.386719 13.859375 15.945312 14.925781 15.945312 16.039062 C 15.945312 18.355469 17.824219 20.230469 20.140625 20.230469 C 22.421875 20.179688 24.242188 18.316406 24.246094 16.035156 C 24.242188 13.753906 22.421875 11.890625 20.140625 11.839844 "/>
</svg>

<svg role="img" viewBox="0 0 32 32" height="32" width="32" xmlns="http://www.w3.org/2000/svg"><defs><linearGradient gradientTransform="rotate(.086)scale(1.77778)" gradientUnits="userSpaceOnUse" id="13__12__490__489__219__218__503__502__489__488__149__148__403__402__299__298__375__374__223__222__azure-advisor_svg__svg/azure-advisor.svg755__svg/azure-advisor.svg753__azure-advisor-lp-0" x1="9" x2="9" y1="-.88" y2="16.01"><stop offset=".22" stop-color="rgb(19.607843%, 83.137255%, 96.078431%)"/><stop offset=".43" stop-color="rgb(19.215686%, 81.960784%, 94.901961%)"/><stop offset=".6" stop-color="rgb(17.647059%, 77.647059%, 91.372549%)"/><stop offset=".76" stop-color="rgb(15.686275%, 70.980392%, 85.098039%)"/><stop offset=".91" stop-color="rgb(12.156863%, 61.568627%, 76.862745%)"/><stop offset="1" stop-color="rgb(9.803922%, 54.117647%, 70.196078%)"/></linearGradient></defs><path d="M31.11 16.781a6.84 6.84 0 0 0-5.903-6.648c-.145-4.727-4.07-8.457-8.797-8.356a8.89 8.89 0 0 0-8.445 5.848 8.144 8.144 0 0 0-7.113 7.93 8.279 8.279 0 0 0 2.59 5.793 8.28 8.28 0 0 0 5.925 2.261c.25.016.5.016.75 0h13.778c.117.02.238.02.355 0a6.929 6.929 0 0 0 6.86-6.828" fill="url(#13__12__490__489__219__218__503__502__489__488__149__148__403__402__299__298__375__374__223__222__azure-advisor_svg__svg/azure-advisor.svg755__svg/azure-advisor.svg753__azure-advisor-lp-0)"/><path d="m25.832 26.914-3.555 3.805a.464.464 0 0 1-.465.113.457.457 0 0 1-.32-.36L19.344 19.98a.456.456 0 0 1 .21-.425l2.348-.961a.466.466 0 0 1 .586.234l3.469 7.645c.047.16 0 .332-.125.441" fill="rgb(21.568627%, 76.078431%, 69.411765%)"/><path d="m14.223 26.914 3.554 3.805a.446.446 0 0 0 .47.113.454.454 0 0 0 .312-.36L20.71 19.98a.46.46 0 0 0-.266-.496l-2.347-.96a.46.46 0 0 0-.586.23l-3.469 7.644a.43.43 0 0 0 .18.516" fill="rgb(25.882353%, 90.980392%, 79.215686%)"/><path d="m20.586 10.668.465-.39a.729.729 0 0 1 1.012.085.66.66 0 0 1 .125.215l.21.57c.13.32.461.508.801.461l.586-.105a.727.727 0 0 1 .836.586c.02.082.02.164 0 .246l-.105.59a.74.74 0 0 0 .46.797l.57.199a.746.746 0 0 1 .427.941 1.153 1.153 0 0 1-.125.211l-.391.446a.745.745 0 0 0 0 .925l.39.461a.724.724 0 0 1-.105 1.016.777.777 0 0 1-.195.121l-.57.215a.715.715 0 0 0-.461.8l.105.587a.67.67 0 0 1-.117.535.675.675 0 0 1-.469.28.54.54 0 0 1-.25 0H23.2a.71.71 0 0 0-.8.466l-.212.55a.698.698 0 0 1-.375.407.692.692 0 0 1-.55.02.642.642 0 0 1-.211-.126l-.446-.445a.715.715 0 0 0-.925 0l-.461.375a.7.7 0 0 1-.528.168.704.704 0 0 1-.488-.258.506.506 0 0 1-.125-.21l-.21-.555a.689.689 0 0 0-.802-.461l-.586.105a.73.73 0 0 1-.632-.2.744.744 0 0 1-.203-.632l.105-.59a.692.692 0 0 0-.46-.797l-.552-.215a.752.752 0 0 1-.515-.89c.035-.074.074-.145.125-.211l.39-.465a.74.74 0 0 0 0-.922l-.39-.445a.727.727 0 0 1-.16-.54.73.73 0 0 1 .265-.491.414.414 0 0 1 .215-.106l.55-.215a.744.744 0 0 0 .462-.8l-.035-.532a.727.727 0 0 1 .585-.836h.25l.586.106a.726.726 0 0 0 .801-.461l.211-.586a.735.735 0 0 1 .926-.43l.215.125.46.39a.726.726 0 0 0 .907-.085" fill="rgb(0%, 35.686275%, 63.137255%)"/><path d="M20.14 11.84a4.189 4.189 0 0 0-2.968 1.23 4.208 4.208 0 0 0-1.227 2.97 4.193 4.193 0 0 0 4.196 4.19 4.2 4.2 0 0 0 4.105-4.195 4.2 4.2 0 0 0-4.105-4.195" fill="rgb(100%, 79.215686%, 0%)"/></svg>
